X:1
T:Kathrine, CM
T:Charles Hutchinson Gabriel (1856-1932)
T:Kathrine, CM
T:Public Domain
C:Charles Hutchinson Gabriel (1856-1932)
Z:Public Domain
%%score ( 1 2 ) ( 3 4 )
L:1/8
M:3/4
K:C
V:1 treble 
V:2 treble 
V:3 bass 
V:4 bass 
V:1
 [EG]2 | [Ec]3 [CE] [CE][CE] | [EG][DF] [DF]2 [DF]2 | [Fd]3 [FB] [FA][FB] | [Ec]4 [EG]2 | %5
 [Ge]3 [Gd] [Gc]G | [GB][FA] [FA]2 [^Dc]2 | [EG]3 [Ec] [DB][Fd] | [Ec]4 |] %9
V:2
 x2 | x6 | x6 | x6 | x6 | x5 G | x6 | x6 | x4 |] %9
V:3
 [C,C]2 | [C,G,]3 [C,G,] [C,G,][C,G,] | [G,,G,][G,,B,] [G,,B,]2 [G,,B,]2 | [G,B,]3 [G,D] [G,D]G, | %4
 [C,G,]4 [C,C]2 | [C,C]3 [D,B,] [E,C][E,C] | [F,C][F,C] [F,C]2 [^F,A,]2 | [G,C]3 G, G,[G,,G,] | %8
 [C,G,]4 |] %9
V:4
 x2 | x6 | x6 | x5 G, | x6 | x6 | x6 | x3 G, G, x | x4 |] %9

